packages/core/src/svgs/tokens/mono/SMARTCREDIT.svg

<svg width="24" height="24" viewBox="0 0 24 24" fill="none" xmlns="http://www.w3.org/2000/svg">
<path fill-rule="evenodd" clip-rule="evenodd" d="M3.22234 17.1764C3.12882 16.99 3.12176 16.4869 3.83472 15.9647C3.93941 15.8881 4.08412 15.7882 4.25943 15.667C5.57532 14.7593 8.63066 12.6499 9.77776 10.0187C10.7436 7.80275 11.0295 4.6027 11.1225 3.55681C11.1359 3.40975 11.1454 3.30505 11.1518 3.2521C11.2077 2.82269 11.5237 2.05915 11.8948 2.00327C12.2666 1.94738 12.7124 2.61797 12.7495 3.2521C12.9595 6.84098 13.3283 8.64747 14.0731 10.0187C14.6572 11.0934 18.1043 14.5164 20.1037 15.9647C20.4073 16.1264 20.969 16.5952 20.7908 17.1764C20.6125 17.7582 19.7261 17.5429 19.3049 17.3629C17.8802 16.5634 14.4037 14.9917 11.8948 15.0964C9.38658 15.2011 6.2518 16.527 4.99884 17.1764C4.50178 17.3717 3.45118 17.6453 3.22234 17.1764ZM5.52826 10.8233C6.15231 10.8233 6.7508 10.5754 7.19207 10.1342C7.63333 9.69288 7.88123 9.09446 7.88123 8.4704C7.88123 7.84635 7.63333 7.24787 7.19207 6.80661C6.7508 6.36534 6.15231 6.11744 5.52826 6.11744C4.90422 6.11744 4.30573 6.36534 3.86446 6.80661C3.42319 7.24787 3.17529 7.84635 3.17529 8.4704C3.17529 9.09446 3.42319 9.69288 3.86446 10.1342C4.30573 10.5754 4.90422 10.8233 5.52826 10.8233ZM18.4695 10.8233C19.0936 10.8233 19.6921 10.5754 20.1334 10.1342C20.5746 9.69288 20.8225 9.09446 20.8225 8.4704C20.8225 7.84635 20.5746 7.24787 20.1334 6.80661C19.6921 6.36534 19.0936 6.11744 18.4695 6.11744C17.8456 6.11744 17.2471 6.36534 16.8059 6.80661C16.3646 7.24787 16.1167 7.84635 16.1167 8.4704C16.1167 9.09446 16.3646 9.69288 16.8059 10.1342C17.2471 10.5754 17.8456 10.8233 18.4695 10.8233ZM14.3518 19.647C14.3518 20.2711 14.104 20.8696 13.6627 21.3108C13.2215 21.7521 12.623 22 11.999 22C11.3749 22 10.7764 21.7521 10.3352 21.3108C9.89388 20.8696 9.646 20.2711 9.646 19.647C9.646 19.023 9.89388 18.4245 10.3352 17.9832C10.7764 17.5419 11.3749 17.294 11.999 17.294C12.623 17.294 13.2215 17.5419 13.6627 17.9832C14.104 18.4245 14.3518 19.023 14.3518 19.647Z" fill="white"/>
</svg>

<svg xmlns="http://www.w3.org/2000/svg" width="24" height="24" fill="none" viewBox="0 0 24 24">
    <path fill="#fff" fill-rule="evenodd" d="M3.222 17.176c-.093-.186-.1-.69.613-1.211.104-.077.25-.177.424-.298 1.316-.908 4.372-3.017 5.519-5.648.966-2.216 1.252-5.416 1.345-6.462.013-.147.022-.252.029-.305.056-.43.372-1.193.743-1.249.372-.056.817.615.854 1.25.21 3.588.58 5.394 1.324 6.766.584 1.074 4.031 4.497 6.03 5.946.304.161.866.63.688 1.211s-1.065.367-1.486.187c-1.425-.8-4.901-2.371-7.41-2.267-2.508.105-5.643 1.431-6.896 2.08-.497.196-1.548.47-1.777 0m2.306-6.353a2.353 2.353 0 1 0 0-4.706 2.353 2.353 0 0 0 0 4.706m12.942 0a2.353 2.353 0 1 0 0-4.706 2.353 2.353 0 0 0 0 4.706m-4.118 8.824a2.353 2.353 0 1 1-4.705 0 2.353 2.353 0 0 1 4.705 0" clip-rule="evenodd"/>
</svg>
